X: 13526
T: Flowers Of Spring, The
R: jig
M: 6/8
K: Adorian
|:eaa aga|bab age|e/f/ge G3|ede ged|
eaa aga|bab age|e/f/ge dBG|ABA A3:|

